images/F4Llogo.svg

<svg viewBox="0 0 63.75 15.06" xmlns="http://www.w3.org/2000/svg"><g fill="#231f20"><path d="m5 4.4v2.43h3.8v1.26h-3.8v3.45h-1.43v-8.41h5.64v1.27z"/><path d="m14.85 5.51a3 3 0 0 1 1.15 1.14 3.34 3.34 0 0 1 .42 1.69 3.36 3.36 0 0 1 -.42 1.66 2.92 2.92 0 0 1 -1.17 1.14 3.51 3.51 0 0 1 -1.73.41 3.5 3.5 0 0 1 -1.74-.41 2.88 2.88 0 0 1 -1.16-1.14 3.36 3.36 0 0 1 -.42-1.69 3.34 3.34 0 0 1 .42-1.69 2.94 2.94 0 0 1 1.18-1.14 3.88 3.88 0 0 1 3.47 0zm-3.14 1.36a2 2 0 0 0 -.55 1.48 2.1 2.1 0 0 0 .55 1.51 1.85 1.85 0 0 0 1.41.57 1.85 1.85 0 0 0 1.4-.57 2.13 2.13 0 0 0 .54-1.51 2 2 0 0 0 -.55-1.48 1.81 1.81 0 0 0 -1.39-.58 1.83 1.83 0 0 0 -1.41.58z"/><path d="m22.35 5.51a3 3 0 0 1 1.17 1.14 3.34 3.34 0 0 1 .42 1.69 3.36 3.36 0 0 1 -.42 1.66 2.92 2.92 0 0 1 -1.17 1.14 3.88 3.88 0 0 1 -3.47 0 2.88 2.88 0 0 1 -1.18-1.14 3.36 3.36 0 0 1 -.42-1.69 3.34 3.34 0 0 1 .42-1.69 2.94 2.94 0 0 1 1.18-1.14 3.88 3.88 0 0 1 3.47 0zm-3.14 1.36a2 2 0 0 0 -.55 1.48 2.1 2.1 0 0 0 .55 1.51 2 2 0 0 0 2.81 0 2.13 2.13 0 0 0 .54-1.51 2 2 0 0 0 -.56-1.48 2 2 0 0 0 -2.8 0z"/><path d="m31.46 11.54h-1.37v-1.09a2.28 2.28 0 0 1 -.92.85 2.8 2.8 0 0 1 -1.33.29 3 3 0 0 1 -1.6-.41 2.73 2.73 0 0 1 -1.07-1.18 3.58 3.58 0 0 1 -.39-1.7 3.5 3.5 0 0 1 .39-1.68 2.74 2.74 0 0 1 1.07-1.12 3 3 0 0 1 1.58-.41 2.78 2.78 0 0 1 1.33.3 2.52 2.52 0 0 1 .94.87v-3.63h1.37zm-1.92-1.68a2.12 2.12 0 0 0 .55-1.49 2.16 2.16 0 0 0 -.55-1.52 2 2 0 0 0 -2.82 0 2.15 2.15 0 0 0 -.56 1.51 2.13 2.13 0 0 0 .56 1.49 2 2 0 0 0 2.82 0z"/></g><path d="m36.91 8.21v-2h1.32v2h1.23v1.26h-1.23v2.07h-1.32v-2.07h-4v-1.05l2.87-5.29h1.36l-2.73 5.08z" fill="#f37046"/><path d="m40.8 11.54v-8.91h1.39v8.91z" fill="#231f20"/><path d="m45.54 2.72a.81.81 0 0 1 .23.61.8.8 0 0 1 -.23.59.78.78 0 0 1 -.58.23.74.74 0 0 1 -.57-.23.81.81 0 0 1 -.23-.59.85.85 0 0 1 .23-.61.83.83 0 0 1 1.15 0zm-1.26 8.82v-6.39h1.37v6.39z" fill="#231f20"/><path d="m49.57 4a.79.79 0 0 0 -.25.64v.76h1.68v1h-1.68v5.11h-1.32v-5.08h-.84v-1h.84v-.66a2.2 2.2 0 0 1 .31-1.21 1.87 1.87 0 0 1 .81-.74 2.38 2.38 0 0 1 1.08-.25 2.33 2.33 0 0 1 1.39.43l-.53 1.05a1.44 1.44 0 0 0 -.88-.3.86.86 0 0 0 -.61.25z" fill="#231f20"/><path d="m56.58 6a3.52 3.52 0 0 1 .75 2.4v.52h-4.86a2.05 2.05 0 0 0 .7 1.17 2 2 0 0 0 1.29.43 2.71 2.71 0 0 0 1-.19 2.4 2.4 0 0 0 .81-.56l.74.78a3.31 3.31 0 0 1 -1.15.8 3.8 3.8 0 0 1 -1.49.28 3.38 3.38 0 0 1 -1.71-.41 2.91 2.91 0 0 1 -1.17-1.22 3.43 3.43 0 0 1 -.4-1.69 3.42 3.42 0 0 1 .4-1.68 2.89 2.89 0 0 1 1.15-1.15 3.31 3.31 0 0 1 1.67-.42 2.9 2.9 0 0 1 2.27.94zm-1 .7a1.81 1.81 0 0 0 -1.26-.44 1.84 1.84 0 0 0 -1.26.44 2 2 0 0 0 -.62 1.21h3.66a1.67 1.67 0 0 0 -.51-1.26z" fill="#231f20"/><path d="m59.57 10.28a.87.87 0 0 1 0 1.13.74.74 0 0 1 -.54.23.68.68 0 0 1 -.54-.23.84.84 0 0 1 0-1.13.7.7 0 0 1 .54-.22.73.73 0 0 1 .54.22z" fill="#f37046"/></svg>

<svg id="Layer_1" data-name="Layer 1" xmlns="http://www.w3.org/2000/svg" viewBox="0 0 63.75 15.06"><defs><style>.cls-1{fill:#231f20;}.cls-2{fill:#f37046;}</style></defs><title>F4L logo</title><path class="cls-1" d="M5,4.4V6.83H8.8V8.09H5v3.45H3.57V3.13H9.21V4.4Z"/><path class="cls-1" d="M14.85,5.51A3,3,0,0,1,16,6.65a3.34,3.34,0,0,1,.42,1.69A3.36,3.36,0,0,1,16,10a2.92,2.92,0,0,1-1.17,1.14,3.51,3.51,0,0,1-1.73.41,3.5,3.5,0,0,1-1.74-.41A2.88,2.88,0,0,1,10.2,10a3.36,3.36,0,0,1-.42-1.69,3.34,3.34,0,0,1,.42-1.69,2.94,2.94,0,0,1,1.18-1.14,3.88,3.88,0,0,1,3.47,0ZM11.71,6.87a2,2,0,0,0-.55,1.48,2.1,2.1,0,0,0,.55,1.51,1.85,1.85,0,0,0,1.41.57,1.85,1.85,0,0,0,1.4-.57,2.13,2.13,0,0,0,.54-1.51,2,2,0,0,0-.55-1.48,1.81,1.81,0,0,0-1.39-.58A1.83,1.83,0,0,0,11.71,6.87Z"/><path class="cls-1" d="M22.35,5.51a3,3,0,0,1,1.17,1.14,3.34,3.34,0,0,1,.42,1.69A3.36,3.36,0,0,1,23.52,10a2.92,2.92,0,0,1-1.17,1.14,3.88,3.88,0,0,1-3.47,0A2.88,2.88,0,0,1,17.7,10a3.36,3.36,0,0,1-.42-1.69,3.34,3.34,0,0,1,.42-1.69,2.94,2.94,0,0,1,1.18-1.14,3.88,3.88,0,0,1,3.47,0ZM19.21,6.87a2,2,0,0,0-.55,1.48,2.1,2.1,0,0,0,.55,1.51,2,2,0,0,0,2.81,0,2.13,2.13,0,0,0,.54-1.51A2,2,0,0,0,22,6.87a2,2,0,0,0-2.8,0Z"/><path class="cls-1" d="M31.46,11.54H30.09V10.45a2.28,2.28,0,0,1-.92.85,2.8,2.8,0,0,1-1.33.29,3,3,0,0,1-1.6-.41A2.73,2.73,0,0,1,25.17,10a3.58,3.58,0,0,1-.39-1.7,3.5,3.5,0,0,1,.39-1.68A2.74,2.74,0,0,1,26.24,5.5a3,3,0,0,1,1.58-.41,2.78,2.78,0,0,1,1.33.3,2.52,2.52,0,0,1,.94.87V2.63h1.37ZM29.54,9.86a2.12,2.12,0,0,0,.55-1.49,2.16,2.16,0,0,0-.55-1.52,2,2,0,0,0-2.82,0,2.15,2.15,0,0,0-.56,1.51,2.13,2.13,0,0,0,.56,1.49,2,2,0,0,0,2.82,0Z"/><path class="cls-2" d="M36.91,8.21v-2h1.32v2h1.23V9.47H38.23v2.07H36.91V9.47h-4V8.42l2.87-5.29h1.36L34.41,8.21Z"/><path class="cls-1" d="M40.8,11.54V2.63h1.39v8.91Z"/><path class="cls-1" d="M45.54,2.72a.81.81,0,0,1,.23.61.8.8,0,0,1-.23.59.78.78,0,0,1-.58.23.74.74,0,0,1-.57-.23.81.81,0,0,1-.23-.59.85.85,0,0,1,.23-.61.83.83,0,0,1,1.15,0Zm-1.26,8.82V5.15h1.37v6.39Z"/><path class="cls-1" d="M49.57,4a.79.79,0,0,0-.25.64v.76H51v1H49.32v5.11H48V6.43h-.84v-1H48V4.77a2.2,2.2,0,0,1,.31-1.21,1.87,1.87,0,0,1,.81-.74,2.38,2.38,0,0,1,1.08-.25A2.33,2.33,0,0,1,51.59,3l-.53,1.05a1.44,1.44,0,0,0-.88-.3A.86.86,0,0,0,49.57,4Z"/><path class="cls-1" d="M56.58,6a3.52,3.52,0,0,1,.75,2.4c0,.11,0,.28,0,.52H52.47a2.05,2.05,0,0,0,.7,1.17,2,2,0,0,0,1.29.43,2.71,2.71,0,0,0,1-.19,2.4,2.4,0,0,0,.81-.56l.74.78a3.31,3.31,0,0,1-1.15.8,3.8,3.8,0,0,1-1.49.28,3.38,3.38,0,0,1-1.71-.41A2.91,2.91,0,0,1,51.49,10a3.43,3.43,0,0,1-.4-1.69,3.42,3.42,0,0,1,.4-1.68,2.89,2.89,0,0,1,1.15-1.15,3.31,3.31,0,0,1,1.67-.42A2.9,2.9,0,0,1,56.58,6Zm-1,.7a1.81,1.81,0,0,0-1.26-.44,1.84,1.84,0,0,0-1.26.44,2,2,0,0,0-.62,1.21H56.1A1.67,1.67,0,0,0,55.59,6.65Z"/><path class="cls-2" d="M59.57,10.28a.87.87,0,0,1,0,1.13.74.74,0,0,1-.54.23.68.68,0,0,1-.54-.23.84.84,0,0,1,0-1.13.7.7,0,0,1,.54-.22A.73.73,0,0,1,59.57,10.28Z"/></svg>
